brandFactory_export/2.Regular/Video _2Regular.svg

<?xml version="1.0" encoding="UTF-8"?>
<svg width="24px" height="24px" viewBox="0 0 24 24" version="1.1" xmlns="http://www.w3.org/2000/svg" xmlns:xlink="http://www.w3.org/1999/xlink">
    <title>2.Regular/Video _2Regular</title>
    <g id="Symbols" stroke="none" stroke-width="1" fill="none" fill-rule="evenodd">
        <g id="2.Regular/Video-_2Regular" fill="#5CB615" fill-rule="nonzero">
            <path d="M19.9663866,21.1411765 C21.8218487,20.9932773 22.1210084,19.507563 22.1680672,18.6201681 L19.9663866,18.6201681 L19.9663866,21.1411765 Z M1.52268908,18.6403361 C1.55630252,19.0672269 1.68739496,19.8470588 2.20504202,20.4016807 C2.55798319,20.7781513 3.06554622,21.0067227 3.72436975,21.097479 L3.72436975,18.6403361 L1.52268908,18.6403361 Z M2.53445378,2.9394958 C2.29579832,3.0907563 1.61680672,3.55462185 1.52941176,5.10756303 L3.72436975,5.10756303 L3.72436975,2.54285714 C3.38151261,2.58319328 2.93445378,2.68067227 2.53445378,2.9394958 Z M22.1747899,5.0907563 C22.1546218,4.68739496 22.0504202,3.85378151 21.5058824,3.26890756 C21.1529412,2.88907563 20.6352941,2.65378151 19.9630252,2.55966387 L19.9630252,5.0907563 L22.1747899,5.0907563 Z M19.9663866,17.1176471 L22.1781513,17.1176471 L22.1781513,14.6134454 L19.9663866,14.6134454 L19.9663866,17.1176471 Z M19.9663866,9.10084034 L22.1747899,9.10084034 L22.1747899,6.59327731 L19.9663866,6.59327731 L19.9663866,9.10084034 Z M19.9663866,13.107563 L22.1747899,13.107563 L22.1747899,10.6 L19.9663866,10.6 L19.9663866,13.107563 L19.9663866,13.107563 Z M5.2,2.51932773 L5.2,21.1411765 L18.4907563,21.1411765 L18.4907563,2.51260504 C14.4235294,2.51260504 7.56302521,2.51932773 5.2,2.51932773 Z M1.51260504,17.1378151 L3.72436975,17.1378151 L3.72436975,14.6336134 L1.51260504,14.6336134 L1.51260504,17.1378151 Z M1.51260504,9.11092437 L3.72436975,9.11092437 L3.72436975,6.61344538 L1.51260504,6.61344538 L1.51260504,9.11092437 Z M1.51260504,10.6134454 L1.51260504,13.1277311 L3.72436975,13.1277311 L3.72436975,10.6134454 L1.51260504,10.6134454 Z M19.2840336,1.01008403 C23.9966387,1.01008403 23.6504202,5.45042017 23.6504202,5.45042017 C23.6504202,5.45042017 23.6537815,13.2016807 23.6537815,18.2 C23.6537815,22.2941176 20.7226891,22.6672269 19.6638655,22.6672269 C19.4319328,22.6672269 19.287395,22.6470588 19.287395,22.6470588 L4.37983193,22.6470588 C-0.258823529,22.6470588 0.0369747899,18.2235294 0.0369747899,18.2235294 C0.0369747899,18.2235294 0.0336134454,10.2302521 0.0336134454,5.42689076 C0.0336134454,1.30252101 3.22016807,1.01008403 4.12436975,1.01008403 C4.27563025,1.01008403 4.35966387,1.01680672 4.35966387,1.01680672 C4.35966387,1.01680672 14.5714286,1.01008403 19.2840336,1.01008403 Z M9.14285714,14.9361345 L14.4134454,11.8369748 L9.14285714,8.73781513 L9.14285714,14.9361345 Z M16.2588235,11.1848739 C16.487395,11.3193277 16.6285714,11.5680672 16.6285714,11.8369748 C16.6285714,12.1058824 16.487395,12.3546218 16.2588235,12.4890756 L8.77310924,16.8890756 C8.65882353,16.9563025 8.53109244,16.989916 8.40336134,16.989916 C8.27563025,16.989916 8.14789916,16.9563025 8.03361345,16.8890756 C7.80504202,16.7546218 7.66386555,16.5058824 7.66386555,16.2369748 L7.66386555,7.43697479 C7.66386555,7.16806723 7.80504202,6.91932773 8.03361345,6.78487395 C8.26218487,6.65042017 8.54453782,6.65042017 8.77310924,6.78487395 L16.2588235,11.1848739 Z" id="Video-_2Regular"></path>
        </g>
    </g>
</svg>

<svg width="24" height="24" viewBox="0 0 24 24" xmlns="http://www.w3.org/2000/svg"><path d="M19.966 21.141c1.856-.148 2.155-1.633 2.202-2.52h-2.202v2.52zm-18.443-2.5c.033.426.164 1.206.682 1.76.353.377.86.606 1.52.696V18.64H1.522zM2.534 2.938c-.238.152-.917.616-1.005 2.169h2.195V2.543c-.342.04-.79.138-1.19.396zm19.64 2.152c-.02-.404-.124-1.237-.668-1.822-.353-.38-.87-.615-1.543-.71v2.532h2.212zm-2.208 12.027h2.212v-2.505h-2.212v2.505zm0-8.017h2.209V6.593h-2.209v2.508zm0 4.007h2.209V10.6h-2.209v2.508zM5.2 2.519v18.622h13.29V2.513c-4.066 0-10.927.006-13.29.006zM1.513 17.138h2.211v-2.504H1.513v2.504zm0-8.027h2.211V6.613H1.513v2.498zm0 1.502v2.515h2.211v-2.515H1.513zM19.284 1.01c4.713 0 4.366 4.44 4.366 4.44s.004 7.752.004 12.75c0 4.094-2.931 4.467-3.99 4.467-.232 0-.377-.02-.377-.02H4.38c-4.639 0-4.343-4.423-4.343-4.423S.034 10.23.034 5.427c0-4.124 3.186-4.417 4.09-4.417.152 0 .236.007.236.007S14.57 1.01 19.284 1.01zM9.143 14.936l5.27-3.099-5.27-3.1v6.2zm7.116-3.751c.228.134.37.383.37.652a.756.756 0 01-.37.652l-7.486 4.4a.729.729 0 01-.74 0 .756.756 0 01-.37-.652v-8.8c0-.269.142-.518.37-.652a.728.728 0 01.74 0l7.486 4.4z" fill="#5CB615" fill-rule="nonzero"/></svg>
